X: 2
T: Coppers And Brass
R: jig
M: 6/8
L: 1/8
K: Gmaj
d/2c/2|BGB BGB|AFA AFA|~B3 ABA|GBd ged|~B3 BAG|ABA DFA|ded cAF|AGF G2:|d|~f3 fed|cAG FGA|g2g gfg|agf d2e|f/2g/2fd e/2f/2ed|cAG FGA|BGB cAF|AGF G2:|


Tune 228	Setting 12917

